X: 105
T: Finnish Schottische
T: Jack in the Green
M: C
K: D
|: "D"D2 F2 A>G F<E | D>F A<d f2 ef | "A7"g2 ec A>c e<f | e>d cG F<E |
   "D"D2 F2 A>G F<E | D>F A<d f2 ef | "A7"g2 ec A>c e<c \
  |1 "D"d2 d2 d2 AF :|2 "D"d2 d2 d2 A2 ||
K: Gm
|: "Gm"d3 d d2 c2 | B>c B<A G2 ^FG | "D7"A>B A<G ^F>_E F<E | D2 DE D2 CB, |
   "Cm"C2 CD E>G =F<E | "Gm"D2 G2 B>d cB A<G ^F>D =E<F \
  |1 "Gm"G2 G2 G2 B2 :|2 "Gm"G2 G2 G2 "D"^FE ||
